src/lib/packages/icons/src/assets/filled/delivery-cart-arrow-down.svg

<svg width="24" height="24" viewBox="0 0 24 24" fill="none" xmlns="http://www.w3.org/2000/svg">
<path d="M21.738 16.65C21.81 17.058 21.538 17.447 21.13 17.519L10.46 19.397C10.268 20.586 9.24301 21.5 8.00001 21.5C6.62101 21.5 5.50001 20.378 5.50001 19C5.50001 17.883 6.24106 16.946 7.25306 16.626L5.17103 4.77999C5.05203 4.10299 4.39903 3.652 3.71803 3.768L3.12404 3.869C2.72404 3.936 2.32802 3.663 2.26002 3.255C2.19102 2.846 2.46504 2.45899 2.87404 2.38999L3.464 2.28999C4.946 2.03099 6.38496 3.02999 6.64796 4.51899L8.77699 16.635C9.42099 16.847 9.94698 17.309 10.241 17.911L20.87 16.04C21.279 15.969 21.667 16.242 21.738 16.65ZM9.57203 9.08799C9.20903 7.02899 10.0071 5.889 12.0661 5.526L15.7 4.88499C17.759 4.52199 18.899 5.31999 19.262 7.37899L19.903 11.013C20.266 13.072 19.4681 14.212 17.4091 14.575L13.775 15.216C11.716 15.579 10.576 14.781 10.213 12.722L9.57203 9.08799ZM12.914 11.417L14.643 12.635C14.676 12.658 14.7131 12.67 14.7481 12.687C14.7771 12.701 14.803 12.719 14.834 12.729C14.909 12.755 14.986 12.769 15.064 12.77C15.067 12.77 15.07 12.772 15.074 12.772C15.117 12.772 15.161 12.768 15.205 12.76C15.252 12.751 15.29 12.726 15.333 12.709C15.37 12.695 15.4061 12.687 15.4411 12.667C15.5341 12.614 15.615 12.547 15.677 12.463C15.68 12.459 15.685 12.458 15.688 12.453L16.9151 10.714C17.1531 10.375 17.072 9.907 16.734 9.669C16.393 9.43 15.927 9.511 15.688 9.85L15.5 10.117L15.1181 7.95199C15.0471 7.54499 14.659 7.27199 14.25 7.34399C13.842 7.41599 13.569 7.80499 13.642 8.21299L14.021 10.36L13.78 10.19C13.438 9.951 12.973 10.033 12.734 10.371C12.495 10.71 12.576 11.178 12.914 11.417Z" fill="currentColor"/>
</svg>

<svg xmlns="http://www.w3.org/2000/svg" width="24" height="24" fill="none"><path fill="currentColor" d="M21.738 16.65a.75.75 0 0 1-.608.869l-10.67 1.878A2.498 2.498 0 0 1 8 21.5 2.503 2.503 0 0 1 5.5 19c0-1.117.741-2.054 1.753-2.374L5.171 4.78a1.258 1.258 0 0 0-1.453-1.012l-.594.101a.75.75 0 1 1-.25-1.479l.59-.1a2.762 2.762 0 0 1 3.184 2.229l2.129 12.116c.644.212 1.17.674 1.464 1.276L20.87 16.04a.75.75 0 0 1 .868.61ZM9.572 9.088c-.363-2.059.435-3.199 2.494-3.562l3.634-.641c2.059-.363 3.199.435 3.562 2.494l.641 3.634c.363 2.059-.435 3.199-2.494 3.562l-3.634.641c-2.059.363-3.199-.435-3.562-2.494l-.641-3.634Zm3.342 2.329 1.729 1.218c.033.023.07.035.105.052.03.014.055.032.086.042.075.026.152.04.23.041l.01.002a.734.734 0 0 0 .131-.012c.047-.009.085-.034.128-.051.037-.014.073-.022.108-.042a.75.75 0 0 0 .236-.204c.003-.004.008-.005.011-.01l1.227-1.739a.75.75 0 0 0-1.227-.864l-.188.267-.382-2.165a.749.749 0 1 0-1.476.261l.379 2.147-.241-.17a.75.75 0 0 0-.866 1.227Z"/></svg>
